!!!OTL: GROSSER GOTT VOM HIMMEL DROBEN
!!!ARE: Europa, Mitteleuropa, Deutschland
!!!ARD: Europa%Mitteleuropa%Deutschland@
!!!ARL: 51.5/10.5@
!!!SCT: E0721
!!!YEM: Copyright 1995, estate of Helmut Schaffrath.
**kern
*ICvox
*Ivox
*M3/4
*k[]
*C:
{8.e
16d
=1
4.c
8E
8D
8D
=2
4G
4F}
{8.d
16c
=3
4.B
8G
8A
8B
=4
4.c
8G}
{8.e
16d
=5
4.c
8B
8A
8E
=6
4G
4F}
{8.d
16c
=7
4.B
8G
8A
8B
=8
4c
4r}
==
!!!AGN: Liebes - Lied, Leid, Klage
!!!ONB: ESAC (Essen Associative Code) Database: ERK2
!!!AMT: simple triple
!!!AIN: vox
!!!EED: Helmut Schaffrath
!!!EEV: 1.0
*-
